assets/images/card/doc.svg

<svg width="111" height="144" viewBox="0 0 111 144" fill="none" xmlns="http://www.w3.org/2000/svg">
<path d="M0.5 18.4065V143.5H110.5V0.5H17.9514L0.5 18.4065Z" stroke="#0029FF"/>
<path d="M7.62891 19.4285H20.2165V6.85712" stroke="#0029FF"/>
<path d="M44.4473 77V67.0469H46.751C47.4437 67.056 48.0612 67.1745 48.6035 67.4023C49.1504 67.6257 49.6107 67.9401 49.9844 68.3457C50.3626 68.7467 50.6497 69.2298 50.8457 69.7949C51.0462 70.3555 51.1488 70.9775 51.1533 71.6611V72.3926C51.1488 73.0762 51.0462 73.7005 50.8457 74.2656C50.6497 74.8262 50.3626 75.3092 49.9844 75.7148C49.6107 76.1159 49.1504 76.4303 48.6035 76.6582C48.0612 76.8815 47.4437 76.9954 46.751 77H44.4473ZM45.7324 68.0859V75.9678H46.751C47.2887 75.9632 47.7536 75.8698 48.1455 75.6875C48.5374 75.5007 48.861 75.2477 49.1162 74.9287C49.376 74.6097 49.5674 74.2337 49.6904 73.8008C49.818 73.3678 49.8841 72.8984 49.8887 72.3926V71.6475C49.8841 71.1416 49.818 70.6745 49.6904 70.2461C49.5628 69.8132 49.3714 69.4395 49.1162 69.125C48.861 68.806 48.5374 68.5553 48.1455 68.373C47.7536 68.1908 47.2887 68.0951 46.751 68.0859H45.7324ZM59.459 72.5977C59.4544 72.9531 59.4225 73.3132 59.3633 73.6777C59.3086 74.0378 59.222 74.3864 59.1035 74.7236C58.985 75.0609 58.8324 75.3753 58.6455 75.667C58.4632 75.9587 58.2445 76.2139 57.9893 76.4326C57.734 76.6514 57.4401 76.8245 57.1074 76.9521C56.7793 77.0752 56.4102 77.1367 56 77.1367C55.5898 77.1367 55.2184 77.0752 54.8857 76.9521C54.5576 76.8245 54.266 76.6514 54.0107 76.4326C53.7555 76.2139 53.5345 75.9587 53.3477 75.667C53.1608 75.3708 53.0059 75.054 52.8828 74.7168C52.7643 74.3796 52.6755 74.0309 52.6162 73.6709C52.557 73.3109 52.5251 72.9531 52.5205 72.5977V71.4629C52.5251 71.1074 52.5547 70.7497 52.6094 70.3896C52.6686 70.0251 52.7575 69.6742 52.876 69.3369C52.999 68.9997 53.1517 68.6852 53.334 68.3936C53.5208 68.0973 53.7419 67.8398 53.9971 67.6211C54.2523 67.3978 54.5439 67.2246 54.8721 67.1016C55.2048 66.974 55.5762 66.9102 55.9863 66.9102C56.3965 66.9102 56.7679 66.974 57.1006 67.1016C57.4333 67.2246 57.7272 67.3955 57.9824 67.6143C58.2376 67.833 58.4564 68.0905 58.6387 68.3867C58.8255 68.6784 58.9782 68.9928 59.0967 69.3301C59.2197 69.6673 59.3086 70.0182 59.3633 70.3828C59.4225 70.7474 59.4544 71.1074 59.459 71.4629V72.5977ZM58.208 71.4492C58.2035 71.2122 58.1875 70.9661 58.1602 70.7109C58.1328 70.4512 58.085 70.196 58.0166 69.9453C57.9528 69.6901 57.8662 69.4486 57.7568 69.2207C57.6475 68.9883 57.5107 68.7855 57.3467 68.6123C57.1826 68.4346 56.9889 68.2956 56.7656 68.1953C56.5423 68.0905 56.2826 68.0381 55.9863 68.0381C55.6947 68.0381 55.4372 68.0905 55.2139 68.1953C54.9906 68.3001 54.7969 68.4414 54.6328 68.6191C54.4688 68.7923 54.332 68.9951 54.2227 69.2275C54.1133 69.4554 54.0244 69.6969 53.9561 69.9521C53.8923 70.2028 53.8444 70.458 53.8125 70.7178C53.7852 70.973 53.7692 71.2168 53.7646 71.4492V72.5977C53.7692 72.8301 53.7852 73.0762 53.8125 73.3359C53.8444 73.5957 53.8945 73.8532 53.9629 74.1084C54.0312 74.359 54.1201 74.6006 54.2295 74.833C54.3389 75.0654 54.4756 75.2705 54.6396 75.4482C54.8037 75.6214 54.9974 75.7604 55.2207 75.8652C55.444 75.9701 55.7038 76.0225 56 76.0225C56.2962 76.0225 56.556 75.9701 56.7793 75.8652C57.0072 75.7604 57.2008 75.6214 57.3604 75.4482C57.5244 75.2705 57.6589 75.0677 57.7637 74.8398C57.873 74.6074 57.9596 74.3659 58.0234 74.1152C58.0918 73.86 58.1374 73.6025 58.1602 73.3428C58.1875 73.083 58.2035 72.8346 58.208 72.5977V71.4492ZM67.8398 74.0059C67.7806 74.4661 67.6621 74.89 67.4844 75.2773C67.3066 75.6602 67.0742 75.9906 66.7871 76.2686C66.5046 76.542 66.1673 76.7562 65.7754 76.9111C65.388 77.0615 64.9551 77.1367 64.4766 77.1367C64.0664 77.1367 63.6927 77.0798 63.3555 76.9658C63.0228 76.8473 62.7243 76.6855 62.46 76.4805C62.2002 76.2754 61.9746 76.0339 61.7832 75.7559C61.5964 75.4779 61.4391 75.1748 61.3115 74.8467C61.1885 74.5186 61.0951 74.1745 61.0312 73.8145C60.972 73.4544 60.9401 73.0898 60.9355 72.7207V71.333C60.9401 70.9639 60.972 70.5993 61.0312 70.2393C61.0951 69.8792 61.1885 69.5352 61.3115 69.207C61.4391 68.8789 61.5964 68.5758 61.7832 68.2979C61.9746 68.0153 62.2002 67.7715 62.46 67.5664C62.7243 67.3613 63.0228 67.2018 63.3555 67.0879C63.6882 66.9694 64.0618 66.9102 64.4766 66.9102C64.9733 66.9102 65.4176 66.9876 65.8096 67.1426C66.2015 67.293 66.5387 67.5094 66.8213 67.792C67.1038 68.07 67.3294 68.4049 67.498 68.7969C67.6712 69.1888 67.7852 69.6217 67.8398 70.0957H66.5752C66.5342 69.7949 66.4635 69.5146 66.3633 69.2549C66.263 68.9951 66.1286 68.7673 65.96 68.5713C65.7913 68.3753 65.584 68.2227 65.3379 68.1133C65.0964 67.9993 64.8092 67.9424 64.4766 67.9424C64.1758 67.9424 63.9092 67.9925 63.6768 68.0928C63.4489 68.1885 63.2507 68.3206 63.082 68.4893C62.918 68.6579 62.779 68.8538 62.665 69.0771C62.5557 69.3005 62.4668 69.5374 62.3984 69.7881C62.3301 70.0387 62.2799 70.2962 62.248 70.5605C62.2207 70.8203 62.207 71.0732 62.207 71.3193V72.7207C62.207 72.9668 62.2207 73.222 62.248 73.4863C62.2799 73.7461 62.3301 74.0036 62.3984 74.2588C62.4668 74.5094 62.5557 74.7464 62.665 74.9697C62.7744 75.193 62.9134 75.3913 63.082 75.5645C63.2507 75.7331 63.4489 75.8675 63.6768 75.9678C63.9046 76.0635 64.1712 76.1113 64.4766 76.1113C64.8092 76.1113 65.0964 76.0589 65.3379 75.9541C65.584 75.8493 65.7913 75.7035 65.96 75.5166C66.1286 75.3252 66.263 75.1019 66.3633 74.8467C66.4635 74.5869 66.5342 74.3066 66.5752 74.0059H67.8398Z" fill="#0029FF"/>
</svg>

<svg width="111" height="144" fill="none" xmlns="http://www.w3.org/2000/svg"><path d="M.5 18.407V143.5h110V.5H17.951L.5 18.407z" stroke="#0029FF"/><path d="M7.629 19.428h12.587V6.858" stroke="#0029FF"/><path d="M44.447 77v-9.953h2.304c.693.009 1.31.127 1.852.355a3.802 3.802 0 011.381.944c.379.4.666.884.862 1.449.2.56.303 1.183.307 1.866v.732a5.682 5.682 0 01-.307 1.873 4.06 4.06 0 01-.862 1.449 3.917 3.917 0 01-1.38.943c-.543.224-1.16.337-1.853.342h-2.304zm1.285-8.914v7.882h1.019c.538-.005 1.003-.098 1.395-.28.391-.187.715-.44.97-.76a3.09 3.09 0 00.574-1.127 5.13 5.13 0 00.199-1.408v-.746a5.054 5.054 0 00-.199-1.4 3.185 3.185 0 00-.574-1.122 2.656 2.656 0 00-.97-.752c-.392-.182-.857-.278-1.395-.287h-1.019zm13.727 4.512a7.322 7.322 0 01-.096 1.08c-.054.36-.141.708-.26 1.046a4.516 4.516 0 01-.458.943 3.314 3.314 0 01-.656.766 3.026 3.026 0 01-.882.52 3.134 3.134 0 01-1.107.184 3.19 3.19 0 01-1.114-.185c-.328-.127-.62-.3-.875-.52a3.455 3.455 0 01-.663-.765 4.966 4.966 0 01-.465-.95 6.176 6.176 0 01-.267-1.046 7.18 7.18 0 01-.096-1.073v-1.135c.005-.356.035-.713.09-1.073a6.15 6.15 0 01.266-1.053 5.02 5.02 0 01.458-.943c.187-.297.408-.554.663-.773.255-.223.547-.396.875-.52a3.09 3.09 0 011.114-.19c.41 0 .782.063 1.115.19.332.124.626.294.881.513.256.219.474.477.657.773.186.291.34.606.458.943.123.337.212.688.266 1.053.06.364.091.724.096 1.08v1.135zm-1.251-1.149a8.457 8.457 0 00-.048-.738 4.828 4.828 0 00-.143-.766 3.798 3.798 0 00-.26-.724 2.301 2.301 0 00-.41-.609 1.769 1.769 0 00-.581-.417 1.816 1.816 0 00-.78-.157 1.81 1.81 0 00-.772.157 1.856 1.856 0 00-.581.424 2.284 2.284 0 00-.41.609c-.11.227-.199.469-.267.724a6.13 6.13 0 00-.191 1.497v1.149c.004.232.02.478.047.738.032.26.083.517.15.772.07.251.158.493.267.725.11.232.247.438.41.615.165.173.358.312.582.417.223.105.483.157.779.157.296 0 .556-.052.78-.157a1.82 1.82 0 00.58-.417 2.31 2.31 0 00.404-.608 4.04 4.04 0 00.26-.725c.068-.255.113-.512.136-.772.028-.26.044-.508.048-.745v-1.149zm9.632 2.557c-.06.46-.178.884-.356 1.271-.177.383-.41.714-.697.992-.282.273-.62.487-1.012.642-.387.15-.82.226-1.298.226-.41 0-.784-.057-1.122-.171a3.203 3.203 0 01-.895-.485 3.304 3.304 0 01-.677-.725 4.638 4.638 0 01-.471-.91 5.843 5.843 0 01-.28-1.032 7.293 7.293 0 01-.096-1.093v-1.388a7.29 7.29 0 01.095-1.094c.064-.36.157-.704.28-1.032.128-.328.285-.631.472-.91.192-.282.417-.525.677-.73a3.07 3.07 0 01.895-.48 3.325 3.325 0 011.122-.177c.496 0 .94.078 1.333.233.391.15.729.366 1.011.649.283.278.508.613.677 1.005.173.392.287.825.342 1.299h-1.265a3.726 3.726 0 00-.212-.841c-.1-.26-.234-.488-.403-.684a1.742 1.742 0 00-.622-.458 2.002 2.002 0 00-.861-.17c-.301 0-.568.05-.8.15a1.838 1.838 0 00-.595.396 2.403 2.403 0 00-.417.588c-.11.224-.198.46-.267.711a5.39 5.39 0 00-.15.773c-.027.26-.041.512-.041.758v1.402c0 .246.014.501.041.765.032.26.082.518.15.773.069.25.158.487.267.71.11.224.248.422.417.596.169.168.367.303.595.403.228.096.494.143.8.143.332 0 .62-.052.86-.157.247-.105.454-.25.623-.437.169-.192.303-.415.403-.67.1-.26.171-.54.212-.841h1.265z" fill="#0029FF"/></svg>
